style-guide/assets/wds-icons-h2-small.svg

<svg xmlns="http://www.w3.org/2000/svg" xmlns:xlink="http://www.w3.org/1999/xlink" width="18" height="18" viewBox="0 0 18 18">
  <defs>
    <path id="h2-a" d="M7,16 C6.448,16 6,15.553 6,15 L6,10 L2,10 L2,15 C2,15.553 1.552,16 1,16 C0.448,16 0,15.553 0,15 L0,3 C0,2.447 0.448,2 1,2 C1.552,2 2,2.447 2,3 L2,8 L6,8 L6,3 C6,2.447 6.448,2 7,2 C7.552,2 8,2.447 8,3 L8,15 C8,15.553 7.552,16 7,16 M17,16 L11,16 C10.448,16 10,15.553 10,15 L10,12 C10,9.795 11.794,8 14,8 C15.103,8 16,7.104 16,6 C16,4.896 15.103,4 14,4 C12.897,4 12,4.896 12,6 C12,6.553 11.552,7 11,7 C10.448,7 10,6.553 10,6 C10,3.795 11.794,2 14,2 C16.206,2 18,3.795 18,6 C18,8.205 16.206,10 14,10 C12.897,10 12,10.896 12,12 L12,14 L17,14 C17.552,14 18,14.447 18,15 C18,15.553 17.552,16 17,16"/>
  </defs>
  <use fill-rule="evenodd" xlink:href="#h2-a"/>
</svg>

<svg xmlns="http://www.w3.org/2000/svg" xmlns:xlink="http://www.w3.org/1999/xlink" viewBox="0 0 18 18">
  <defs>
    <path id="h2-a" d="M7 16a1 1 0 0 1-1-1v-5H2v5a1 1 0 1 1-2 0V3a1 1 0 1 1 2 0v5h4V3a1 1 0 1 1 2 0v12a1 1 0 0 1-1 1m10 0h-6a1 1 0 0 1-1-1v-3c0-2.205 1.794-4 4-4 1.103 0 2-.896 2-2s-.897-2-2-2-2 .896-2 2a1 1 0 1 1-2 0c0-2.205 1.794-4 4-4s4 1.795 4 4-1.794 4-4 4c-1.103 0-2 .896-2 2v2h5a1 1 0 1 1 0 2"/>
  </defs>
  <use fill-rule="evenodd" xlink:href="#h2-a"/>
</svg>
